src/assets/home/socialnetwork/instagram.svg

<svg width="80" height="80" viewBox="0 0 80 80" fill="none" xmlns="http://www.w3.org/2000/svg">
<path d="M40 80C17.9029 80 0 62.0859 0 40C0 17.903 17.9141 0 40 0C62.097 0 80 17.9141 80 40C80 62.0859 62.097 80 40 80Z" fill="url(#paint0_radial_88_1429)"/>
<path d="M39.9999 22.0189C45.856 22.0189 46.5476 22.0412 48.8678 22.1416C51.0094 22.242 52.1695 22.599 52.9391 22.9001C53.9654 23.3017 54.6904 23.7702 55.4601 24.5398C56.2297 25.3095 56.6982 26.0345 57.0998 27.0608C57.4009 27.8304 57.7579 28.9905 57.8583 31.1321C57.9587 33.4411 57.981 34.1439 57.981 40C57.981 45.8561 57.9587 46.5477 57.8583 48.8678C57.7579 51.0094 57.4009 52.1695 57.0998 52.9392C56.6982 53.9654 56.2297 54.6904 55.4601 55.4601C54.6904 56.2297 53.9654 56.6982 52.9391 57.0998C52.1695 57.401 51.0094 57.7579 48.8678 57.8583C46.5588 57.9587 45.8672 57.981 39.9999 57.981C34.1438 57.981 33.4523 57.9587 31.1321 57.8583C28.9905 57.7579 27.8304 57.401 27.0607 57.0998C26.0345 56.6982 25.3095 56.2297 24.5398 55.4601C23.7702 54.6904 23.3017 53.9654 22.9001 52.9392C22.5989 52.1695 22.242 51.0094 22.1416 48.8678C22.0412 46.5588 22.0189 45.8561 22.0189 40C22.0189 34.1439 22.0412 33.4523 22.1416 31.1321C22.242 28.9905 22.5989 27.8304 22.9001 27.0608C23.3017 26.0345 23.7702 25.3095 24.5398 24.5398C25.3095 23.7702 26.0345 23.3017 27.0607 22.9001C27.8304 22.599 28.9905 22.242 31.1321 22.1416C33.4523 22.0412 34.1438 22.0189 39.9999 22.0189ZM39.9999 18.0591C34.0434 18.0591 33.2961 18.0814 30.9536 18.1929C28.6224 18.3045 27.0272 18.6726 25.6329 19.208C24.194 19.7657 22.967 20.5131 21.7512 21.7401C20.5354 22.9559 19.7768 24.1829 19.2191 25.6218C18.6725 27.0161 18.3045 28.6112 18.2041 30.9425C18.0925 33.285 18.0702 34.0323 18.0702 39.9888C18.0702 45.9453 18.0925 46.6927 18.2041 49.0351C18.3156 51.3664 18.6837 52.9615 19.2191 54.3558C19.7768 55.7947 20.5242 57.0217 21.7512 58.2376C22.967 59.4534 24.194 60.2119 25.6329 60.7696C27.0272 61.3162 28.6224 61.6843 30.9536 61.7847C33.2961 61.8962 34.0434 61.9185 39.9999 61.9185C45.9564 61.9185 46.7038 61.8962 49.0462 61.7847C51.3775 61.6731 52.9726 61.3051 54.3669 60.7696C55.8058 60.2119 57.0328 59.4646 58.2487 58.2376C59.4645 57.0217 60.223 55.7947 60.7807 54.3558C61.3273 52.9615 61.6954 51.3664 61.7958 49.0351C61.9074 46.6927 61.9297 45.9453 61.9297 39.9888C61.9297 34.0323 61.9074 33.285 61.7958 30.9425C61.6843 28.6112 61.3162 27.0161 60.7807 25.6218C60.223 24.1829 59.4757 22.9559 58.2487 21.7401C57.0328 20.5242 55.8058 19.7657 54.3669 19.208C52.9726 18.6614 51.3775 18.2933 49.0462 18.1929C46.7038 18.0925 45.9564 18.0591 39.9999 18.0591Z" fill="white"/>
<path d="M40 28.7339C33.7758 28.7339 28.734 33.7757 28.734 39.9999C28.734 46.2241 33.7758 51.266 40 51.266C46.2242 51.266 51.2661 46.2241 51.2661 39.9999C51.2661 33.7757 46.2242 28.7339 40 28.7339ZM40 47.3061C35.9621 47.3061 32.6938 44.0379 32.6938 39.9999C32.6938 35.962 35.9621 32.6937 40 32.6937C44.0379 32.6937 47.3062 35.962 47.3062 39.9999C47.3174 44.0379 44.0379 47.3061 40 47.3061Z" fill="white"/>
<path d="M54.3446 28.2877C54.3446 29.7378 53.1622 30.9202 51.7122 30.9202C50.2621 30.9202 49.0797 29.7378 49.0797 28.2877C49.0797 26.8377 50.2621 25.6553 51.7122 25.6553C53.1622 25.6553 54.3446 26.8377 54.3446 28.2877Z" fill="white"/>
<defs>
<radialGradient id="paint0_radial_88_1429" cx="0" cy="0" r="1" gradientUnits="userSpaceOnUse" gradientTransform="translate(-2.00424 80.2668) scale(147.926)">
<stop stop-color="#F5EC53"/>
<stop offset="0.2412" stop-color="#E48244"/>
<stop offset="0.3974" stop-color="#D15767"/>
<stop offset="0.4888" stop-color="#C84278"/>
<stop offset="1" stop-color="#192CFA"/>
</radialGradient>
</defs>
</svg>

<svg width="80" height="80" fill="none" xmlns="http://www.w3.org/2000/svg"><path d="M40 80C17.903 80 0 62.086 0 40 0 17.903 17.914 0 40 0c22.097 0 40 17.914 40 40S62.097 80 40 80Z" fill="url(#a)"/><path d="M40 22.019c5.856 0 6.548.022 8.868.123 2.141.1 3.301.457 4.071.758 1.026.402 1.751.87 2.521 1.64.77.77 1.238 1.495 1.64 2.52.3.77.658 1.93.758 4.072.1 2.31.123 3.012.123 8.868s-.022 6.548-.123 8.868c-.1 2.141-.457 3.301-.758 4.071-.402 1.026-.87 1.751-1.64 2.521-.77.77-1.495 1.238-2.52 1.64-.77.301-1.93.658-4.072.758-2.31.1-3 .123-8.868.123-5.856 0-6.548-.022-8.868-.123-2.142-.1-3.302-.457-4.071-.758-1.026-.402-1.752-.87-2.521-1.64-.77-.77-1.238-1.495-1.64-2.52-.301-.77-.658-1.93-.758-4.072-.1-2.31-.123-3.012-.123-8.868s.022-6.548.123-8.868c.1-2.142.457-3.302.758-4.071.402-1.026.87-1.752 1.64-2.521.77-.77 1.495-1.238 2.52-1.64.77-.301 1.93-.658 4.072-.758 2.32-.1 3.012-.123 8.868-.123Zm0-3.96c-5.957 0-6.704.022-9.046.134-2.332.111-3.927.48-5.321 1.015-1.439.558-2.666 1.305-3.882 2.532a10.755 10.755 0 0 0-2.532 3.882c-.547 1.394-.915 2.99-1.015 5.32-.111 2.343-.134 3.09-.134 9.047 0 5.956.023 6.704.134 9.046.112 2.331.48 3.927 1.015 5.32.558 1.44 1.305 2.667 2.532 3.883a10.755 10.755 0 0 0 3.882 2.532c1.394.546 2.99.914 5.32 1.015 2.343.111 3.09.134 9.047.134 5.956 0 6.704-.023 9.046-.134 2.331-.112 3.927-.48 5.32-1.015 1.44-.558 2.667-1.305 3.883-2.532a10.756 10.756 0 0 0 2.532-3.882c.546-1.395.914-2.99 1.015-5.32.111-2.343.134-3.09.134-9.047 0-5.957-.023-6.704-.134-9.046-.112-2.332-.48-3.927-1.015-5.321-.558-1.44-1.305-2.666-2.532-3.882a10.755 10.755 0 0 0-3.882-2.532c-1.394-.547-2.99-.915-5.32-1.015-2.343-.1-3.09-.134-9.047-.134Z" fill="#fff"/><path d="M40 28.734c-6.224 0-11.266 5.042-11.266 11.266S33.776 51.266 40 51.266 51.266 46.224 51.266 40 46.224 28.734 40 28.734Zm0 18.572A7.303 7.303 0 0 1 32.694 40 7.303 7.303 0 0 1 40 32.694 7.303 7.303 0 0 1 47.306 40c.011 4.038-3.268 7.306-7.306 7.306ZM54.345 28.288a2.637 2.637 0 0 1-2.633 2.632 2.637 2.637 0 0 1-2.632-2.632 2.637 2.637 0 0 1 2.632-2.633 2.637 2.637 0 0 1 2.633 2.633Z" fill="#fff"/><defs><radialGradient id="a" cx="0" cy="0" r="1" gradientUnits="userSpaceOnUse" gradientTransform="translate(-2.004 80.267) scale(147.926)"><stop stop-color="#F5EC53"/><stop offset=".241" stop-color="#E48244"/><stop offset=".397" stop-color="#D15767"/><stop offset=".489" stop-color="#C84278"/><stop offset="1" stop-color="#192CFA"/></radialGradient></defs></svg>
